Sources/FrostedUI/Resources/Icons.xcassets/webcamOn16.imageset/webcam-on-16.svg

<svg width="16" height="16" viewBox="0 0 16 16" fill="none" xmlns="http://www.w3.org/2000/svg" data-fui-icon="true">
  <path
    d="M8.25 2C9.73957 2 11.024 2.86838 11.6289 4.12598L12.4043 3.41895C13.399 2.51079 14.9997 3.2164 15 4.56348V11.4365C14.9994 12.7828 13.3994 13.4896 12.4043 12.5811L11.6289 11.873C11.0242 13.1311 9.73992 14 8.25 14H4.75C2.67895 14 1.0001 12.3209 1 10.25V5.75C1.00007 3.67899 2.67897 2 4.75 2H8.25ZM4.75 3.5C3.5074 3.5 2.50007 4.50742 2.5 5.75V10.25L2.51172 10.4805C2.62721 11.6148 3.58526 12.5 4.75 12.5H8.25C9.40231 12.5 10.3528 11.6326 10.4834 10.5146L10.5049 10.4014C10.6406 9.89055 11.2583 9.62221 11.7227 9.93848L11.8193 10.0146L13.416 11.4736C13.4244 11.4813 13.4302 11.4842 13.4326 11.4854C13.435 11.4865 13.4372 11.487 13.4395 11.4873C13.4448 11.4881 13.4562 11.4884 13.4697 11.4824C13.4831 11.4765 13.4909 11.4685 13.4941 11.4639C13.4954 11.462 13.4963 11.4595 13.4971 11.457L13.5 11.4365V4.56348C13.5 4.55207 13.4988 4.54558 13.498 4.54297C13.4972 4.54038 13.4955 4.53807 13.4941 4.53613C13.4909 4.53157 13.4831 4.52347 13.4697 4.51758C13.4563 4.51172 13.4449 4.51194 13.4395 4.5127C13.4373 4.51304 13.4349 4.51357 13.4326 4.51465C13.4301 4.51585 13.4244 4.51879 13.416 4.52637L11.8193 5.98438C11.3174 6.44265 10.556 6.10562 10.4834 5.48438C10.3525 4.3669 9.40216 3.5 8.25 3.5H4.75Z"
    fill="currentColor"
  />
</svg>

<svg xmlns="http://www.w3.org/2000/svg" width="16" height="16" fill="none" data-fui-icon="true" viewBox="0 0 16 16"><path fill="currentColor" d="M8.25 2c1.49 0 2.774.868 3.379 2.126l.775-.707C13.4 2.511 15 3.216 15 4.563v6.874c0 1.346-1.6 2.053-2.596 1.144l-.775-.708A3.75 3.75 0 0 1 8.25 14h-3.5A3.75 3.75 0 0 1 1 10.25v-4.5A3.75 3.75 0 0 1 4.75 2zm-3.5 1.5A2.25 2.25 0 0 0 2.5 5.75v4.5l.012.23A2.25 2.25 0 0 0 4.75 12.5h3.5a2.25 2.25 0 0 0 2.233-1.985l.022-.114c.136-.51.753-.779 1.218-.463l.096.077 1.597 1.459q.012.01.017.011l.007.002q.008.003.03-.005a.1.1 0 0 0 .024-.018l.003-.007.003-.02V4.563l-.002-.02q0-.004-.004-.007a.1.1 0 0 0-.024-.018.1.1 0 0 0-.03-.005q-.004 0-.007.002l-.017.011-1.597 1.458c-.502.459-1.263.122-1.336-.5A2.25 2.25 0 0 0 8.25 3.5z"/></svg>
